X:1
T:Title
%%score ( 1 2 ) 3
L:1/8
Q:1/4=80
M:4/4
K:D
V:1 treble nm="Strings 1, SOPRANO ALTO"
V:2 treble 
V:3 bass nm="Strings 1, TENOR BASS"
V:1
 z4 z2 [FA][GB] | [FA]2 [DF]2 D2 [Fd]2 | [Gd]3 [GB] [FA]4 | [FA]3 [GB] [FA]2 [DF]2 | %4
 [CE]6 [FA][GB] | [FA]2 [DF]2 D2 [Fd]2 | [Gd]3 [GB] [FA]4 | [DF]3 [DG] [DF]2 [CE]2 | %8
 D4[Q:1/4=80] [DF]2 [DF]2[Q:1/4=12] | [DF]8- | [DF]4 [FA]2 [FA]2 | A4- [EA-]2 [GA-]2 | %12
 [FA]4 [Ac]2 [GB]2 | [FA]4 [EA]2 [CG]2 | [DF]6 z2 |] %15
V:2
 x8 | x8 | x8 | x8 | x8 | x8 | x8 | x8 | x8 | x8 | x8 | F4 z4 | x8 | x8 | x8 |] %15
V:3
 z4 z2 [D,D][D,D] | [D,D]2 [D,A,]2 [D,F,]2 [D,A,]2 | [G,B,]3 [G,D] [D,D]4 | %3
 [D,D]3 [D,D] [D,D]2 [D,A,]2 | [A,,A,]6 [D,A,][D,A,] | [D,D]2 [D,A,]2 [D,F,]2 [D,A,]2 | %6
 [G,B,]3 [G,D] [D,D]4 | [D,A,]3 [G,,B,] [A,,A,]2 [A,,G,]2 | [D,F,]4 z4 | z4 A,2 [F,A,]2 | %10
 [D,A,]4 z4 | z4 [A,,C]2 [A,,E]2 | [D,D]4 [F,D]2 [G,D]2 | [A,D]4 [A,,C]2 [A,,A,]2 | [D,A,]6 z2 |] %15

